frontend/public/svg/weather/sunny.svg

<svg width="146" height="141" viewBox="0 0 146 141" fill="none" xmlns="http://www.w3.org/2000/svg">
<g clip-path="url(#clip0)">
<path d="M70.6837 110.317C63.9266 110.239 57.2292 109.043 50.8624 106.779C39.1192 102.49 32.5945 93.8792 30.3675 81.8039C29.0595 74.7122 29.8049 67.7084 31.6853 60.806C33.4189 54.4887 36.8946 48.7868 41.715 44.3508C42.7432 43.3673 43.545 42.1719 44.0647 40.8473C44.7407 39.0883 46.0541 38.1731 47.5513 37.3901C53.3558 34.3532 59.5712 32.5698 65.922 31.0235C78.7862 27.8888 90.1907 30.9433 100.432 38.8213C111.226 47.1246 116.033 58.2556 114.91 71.823C114.243 79.8881 112.14 87.4904 106.85 93.9206C99.9248 102.338 90.9619 107.273 80.3798 109.325C77.2031 109.94 73.9188 110.002 70.6837 110.317ZM39.2451 73.3391C39.3902 75.509 39.4421 77.1958 39.6252 78.8681C40.6688 88.3305 45.3847 94.9674 54.6049 98.0201C62.6215 100.748 71.2074 101.355 79.5278 99.7817C86.867 98.3791 93.3017 94.953 98.1613 89.1392C104.563 81.4797 105.184 72.4025 103.974 63.0244C103.442 59.4491 102.004 56.0692 99.7975 53.2062C89.8113 39.6542 74.0907 36.6666 60.0649 41.9639C49.4979 45.9551 41.8252 53.7833 39.9809 65.7818C39.5733 68.4376 39.4532 71.1371 39.2451 73.3391Z" fill="black"/>
<path d="M75.2512 134.083C75.1973 134.451 75.1488 134.897 75.0667 135.336C74.5489 138.11 72.9828 139.717 70.7756 139.748C68.441 139.781 66.7063 138.026 66.3783 135.107C66.3263 133.991 66.3714 132.872 66.514 131.764C66.743 128.294 66.9419 124.819 67.2471 121.355C67.3095 120.239 67.5766 119.144 68.0347 118.125C68.2769 117.649 68.6438 117.248 69.0967 116.965C69.5495 116.682 70.0713 116.527 70.6049 116.519C71.1392 116.51 71.6656 116.647 72.1276 116.915C72.5897 117.183 72.9697 117.572 73.227 118.04C73.6254 118.722 73.8781 119.478 73.9693 120.262C74.4366 124.837 74.8278 129.421 75.2512 134.083Z" fill="black"/>
<path d="M30.7701 33.4547C30.14 33.0904 28.7908 32.6356 27.8929 31.7312C25.061 28.8774 22.3297 25.9251 19.6986 22.8744C18.3452 21.3091 18.3952 19.4925 19.4361 18.2717C19.9858 17.617 20.7621 17.1942 21.6103 17.0872C22.4584 16.9803 23.3156 17.1971 24.0106 17.6949C27.8344 20.0275 31.3861 22.7487 34.1493 26.3382C34.7464 27.1501 35.1707 28.0754 35.3962 29.0577C35.9988 31.5794 33.9829 33.7789 30.7701 33.4547Z" fill="black"/>
<path d="M121.499 118.382C121.402 121.865 119.033 123.756 116.38 122.897C115.022 122.412 113.814 121.581 112.875 120.486C110.971 118.288 109.29 115.887 107.585 113.521C107.061 112.796 106.663 111.989 106.408 111.132C105.935 109.504 106.202 107.962 107.655 106.907C108.285 106.419 109.055 106.148 109.852 106.134C110.648 106.121 111.427 106.364 112.075 106.829C112.821 107.327 113.498 107.922 114.088 108.598C116.041 110.763 118.026 112.914 119.827 115.206C120.499 116.201 121.06 117.266 121.499 118.382Z" fill="black"/>
<path d="M123.744 16.2363C126.884 16.3157 128.338 18.9345 126.954 21.38C126.169 22.5997 125.192 23.6836 124.059 24.5899C121.379 26.9612 118.623 29.2497 115.876 31.543C115.194 32.1127 114.474 32.9212 113.695 33.0242C112.537 33.2237 111.347 33.0394 110.305 32.4993C109.224 31.7944 109.193 30.353 109.774 29.1388C110.098 28.4273 110.544 27.7775 111.09 27.2178C114.452 23.9362 117.818 20.6602 121.28 17.4875C122.029 16.942 122.861 16.52 123.744 16.2363Z" fill="black"/>
<path d="M71.8811 14.0098C72.4311 10.5312 72.9372 7.10654 73.5423 3.6962C73.6946 2.92608 74.0247 2.20227 74.5058 1.58169C74.7946 1.1644 75.1897 0.832169 75.6511 0.619621C76.1119 0.407074 76.6212 0.32165 77.1259 0.372854C77.6313 0.424056 78.113 0.609876 78.5219 0.910615C78.9308 1.21136 79.2518 1.61613 79.4507 2.08292C79.8569 3.00335 80.0893 3.99115 80.1372 4.99606C80.3433 8.00736 80.5034 11.0247 80.5402 14.0419C80.5336 15.1599 80.3275 16.2679 79.9311 17.3133C79.6594 18.117 79.131 18.8093 78.4274 19.2842C77.7245 19.7592 76.885 19.9903 76.0377 19.9425C75.2442 19.9374 74.475 19.6717 73.8475 19.1862C73.22 18.7006 72.7698 18.0223 72.5657 17.2556C72.2395 16.2048 72.1029 15.0954 71.8811 14.0098Z" fill="black"/>
<path d="M19.8111 118.528C20.1045 117.619 20.5347 116.76 21.087 115.979C23.4688 113.297 25.9821 110.729 28.4907 108.164C28.998 107.722 29.5724 107.363 30.1923 107.102C30.7424 106.803 31.3737 106.687 31.9941 106.772C32.6145 106.857 33.1915 107.137 33.6413 107.573C34.1838 107.986 34.5736 108.567 34.7496 109.226C34.9255 109.884 34.8776 110.582 34.6134 111.211C34.391 111.846 34.0787 112.446 33.6856 112.992C31.8052 115.366 29.979 117.798 27.9096 120.003C26.8343 121.137 25.5168 122.013 24.0555 122.566C21.6435 123.456 19.5328 121.576 19.8111 118.528Z" fill="black"/>
<path d="M10.8093 75.2653C8.68082 75.2653 6.54305 75.3841 4.4257 75.2331C2.10751 75.0684 0.991806 74.0524 0.867759 72.3846C0.746992 70.7687 1.89999 69.244 3.95236 68.9933C8.17458 68.4781 12.425 68.1893 16.6683 67.8625C17.3425 67.8579 18.0131 67.9616 18.6549 68.1683C20.5209 68.6422 21.4811 69.7429 21.5251 71.3837C21.5721 72.1234 21.3605 72.8565 20.9261 73.4571C20.4917 74.0576 19.8619 74.4895 19.1446 74.6766C17.8517 75.0244 16.5203 75.2082 15.1816 75.2253C13.7291 75.3125 12.2677 75.2443 10.8093 75.2443V75.2653Z" fill="black"/>
<path d="M134.473 68.1994C136.366 68.0202 138.267 67.9467 140.168 67.9775C141.484 68.0097 142.767 68.3943 143.882 69.0933C144.254 69.3985 144.545 69.7903 144.732 70.2334C144.919 70.6764 144.995 71.1575 144.953 71.6373C144.912 72.1164 144.755 72.5778 144.496 72.9828C144.236 73.3877 143.882 73.7238 143.464 73.9614C142.103 74.6932 140.575 75.0588 139.029 75.0233C135.232 74.9308 131.443 74.5311 127.652 74.2292C126.986 74.1576 126.326 74.0388 125.677 73.8741C124.218 73.5459 123.234 72.7583 123.248 71.1332C123.229 70.4447 123.483 69.7766 123.955 69.2751C124.427 68.7737 125.078 68.479 125.767 68.456C128.089 68.181 130.448 68.2125 132.789 68.1246C133.349 68.1036 133.909 68.1246 134.469 68.1246L134.473 68.1994Z" fill="black"/>
</g>
<defs>
<clipPath id="clip0">
<rect width="144.394" height="139.8" fill="white" transform="translate(0.819336 0.276367)"/>
</clipPath>
</defs>
</svg>

<svg xmlns="http://www.w3.org/2000/svg" width="146" height="141" fill="none" viewBox="0 0 146 141"><g fill="#000" clip-path="url(#a)"><path d="M70.684 110.317a61.3 61.3 0 0 1-19.822-3.538c-11.743-4.289-18.268-12.9-20.495-24.975-1.308-7.092-.562-14.096 1.318-20.998a34.9 34.9 0 0 1 10.03-16.455 9.8 9.8 0 0 0 2.35-3.504c.676-1.759 1.99-2.674 3.486-3.457 5.805-3.037 12.02-4.82 18.371-6.367 12.864-3.134 24.269-.08 34.51 7.798 10.794 8.304 15.601 19.435 14.478 33.002-.667 8.065-2.77 15.667-8.06 22.098-6.925 8.417-15.888 13.352-26.47 15.404-3.177.615-6.461.677-9.696.992M39.245 73.339c.145 2.17.197 3.857.38 5.53 1.044 9.462 5.76 16.098 14.98 19.151a49.07 49.07 0 0 0 24.923 1.762c7.339-1.403 13.774-4.829 18.633-10.643 6.402-7.66 7.023-16.736 5.813-26.115a21.2 21.2 0 0 0-4.177-9.818c-9.986-13.552-25.706-16.54-39.732-11.242-10.567 3.991-18.24 11.82-20.084 23.818-.408 2.656-.528 5.355-.736 7.557m36.006 60.744c-.054.368-.102.814-.184 1.253-.518 2.774-2.084 4.381-4.291 4.412-2.335.033-4.07-1.722-4.398-4.641a19 19 0 0 1 .136-3.343c.229-3.47.428-6.945.733-10.409a9.1 9.1 0 0 1 .788-3.23 2.94 2.94 0 0 1 5.192-.085c.398.682.651 1.438.742 2.222.468 4.575.859 9.159 1.282 13.821M30.77 33.455c-.63-.365-1.98-.82-2.877-1.724a173 173 0 0 1-8.194-8.857c-1.354-1.565-1.304-3.381-.263-4.602a3.393 3.393 0 0 1 4.575-.577c3.823 2.332 7.375 5.054 10.138 8.643a7.4 7.4 0 0 1 1.247 2.72c.603 2.521-1.413 4.72-4.626 4.397m90.729 84.927c-.097 3.483-2.466 5.374-5.119 4.515a8.3 8.3 0 0 1-3.505-2.411c-1.904-2.198-3.585-4.599-5.29-6.965a8 8 0 0 1-1.177-2.389c-.473-1.628-.206-3.17 1.247-4.225a3.69 3.69 0 0 1 4.42-.078 10.2 10.2 0 0 1 2.013 1.769c1.953 2.165 3.938 4.316 5.739 6.608.672.995 1.233 2.06 1.672 3.176m2.245-102.146c3.14.08 4.594 2.698 3.21 5.144a13.4 13.4 0 0 1-2.895 3.21c-2.68 2.371-5.436 4.66-8.183 6.953-.682.57-1.402 1.378-2.181 1.481a5.38 5.38 0 0 1-3.39-.525c-1.081-.705-1.112-2.146-.531-3.36a6.8 6.8 0 0 1 1.316-1.921c3.362-3.282 6.728-6.558 10.19-9.73a8.7 8.7 0 0 1 2.464-1.252M71.881 14.01c.55-3.479 1.056-6.903 1.661-10.314a5.05 5.05 0 0 1 .964-2.114 2.84 2.84 0 0 1 2.62-1.21 2.84 2.84 0 0 1 2.325 1.71 8.2 8.2 0 0 1 .686 2.914c.206 3.011.366 6.029.403 9.046a9.4 9.4 0 0 1-.609 3.271 3.876 3.876 0 0 1-3.893 2.63 3.616 3.616 0 0 1-3.472-2.687c-.326-1.051-.463-2.16-.685-3.246m-52.07 104.518a9.4 9.4 0 0 1 1.276-2.549c2.382-2.682 4.895-5.25 7.404-7.815a6.3 6.3 0 0 1 1.701-1.062 2.94 2.94 0 0 1 3.45.471 3.074 3.074 0 0 1 .971 3.638 7 7 0 0 1-.927 1.781c-1.88 2.374-3.707 4.806-5.776 7.011a10.4 10.4 0 0 1-3.855 2.563c-2.411.89-4.522-.99-4.244-4.038M10.81 75.265c-2.13 0-4.267.12-6.384-.032-2.318-.165-3.434-1.18-3.558-2.848-.121-1.616 1.032-3.141 3.084-3.392 4.223-.515 8.473-.804 12.716-1.13a6.3 6.3 0 0 1 1.987.305c1.866.474 2.826 1.575 2.87 3.216a3.19 3.19 0 0 1-2.38 3.293 16 16 0 0 1-3.963.548c-1.453.088-2.914.02-4.373.02zM134.473 68.2a52 52 0 0 1 5.695-.222 7.33 7.33 0 0 1 3.714 1.115 2.965 2.965 0 0 1-.418 4.868 8.93 8.93 0 0 1-4.435 1.062c-3.797-.092-7.586-.492-11.377-.794a14 14 0 0 1-1.975-.355c-1.459-.328-2.443-1.116-2.429-2.74a2.606 2.606 0 0 1 2.519-2.678c2.322-.275 4.681-.243 7.022-.331.56-.021 1.12 0 1.68 0z"/></g><defs><clipPath id="a"><path fill="#fff" d="M.82.276h144.393v139.8H.82z"/></clipPath></defs></svg>
